Modules/BetterCms.Module.Root/Scss/base_64/icons/editor-cmswidget.svg

<svg xmlns="http://www.w3.org/2000/svg" width="14" height="11" viewBox="0 0 14 11" enable-background="new 0 0 14 11">
 <path fill="#474747" d="m1 0c-.6 0-1 .4-1 1v9c0 .6.4 1 1 1h12c.6 0 1-.4 1-1v-9c0-.6-.4-1-1-1h-12m0 3h12v7h-12v-7m1 1v1h3v-1h-3m5 0v2h5v-2h-5m-5 3v1h3v-1h-3m5 0v2h5v-2h-5"/>
</svg>

<svg version="1.1" id="Layer_1" xmlns="http://www.w3.org/2000/svg" xmlns:xlink="http://www.w3.org/1999/xlink" x="0px" y="0px"
	 width="14px" height="11px" viewBox="0 0 14 11" enable-background="new 0 0 14 11" xml:space="preserve">
<path id="path4600" fill="#474747" d="M1,0C0.4,0,0,0.4,0,1v9c0,0.6,0.4,1,1,1h12c0.6,0,1-0.4,1-1
	V1c0-0.6-0.4-1-1-1H1z M1,3h12v7H1V3z M2,4v1h3V4H2z M7,4v2h5V4H7z M2,7v1h3V7H2z M7,7v2h5V7H7z"/>
</svg>
